X: 1
T: Whiskey and Beer
R: slipjig
O: Trad
B: Cole p.58
D: Boys of the Lough ___
Z: John Chambers <jc@trillian.mit.edu>
M: 9/8
L: 1/8
K: D
|: "D"ABA A2G F2G | ABA AGF "A7"A3 | "D"ABA A2G F2G | "A7"A2d d2c "D"d3 :|
[| "D"A2g f2d "A7"e2c | "D"ABA A2B "C"=c2B | "D"A2g f2d "A7"e2c | "A7"A2d d2c "D"d3 ||
|| "D"A2g f2d "A7"e2c | "D"ABA A2B "C"=c2^c | "D"d2A A2G F2G | "A7"A2d d2c "D"d3 |]
